dist/assets/img/contacts/viber.svg

<svg width="17" height="17" viewBox="0 0 17 17" fill="none" xmlns="http://www.w3.org/2000/svg">
<g clip-path="url(#clip0)">
<path d="M4.25235 14.2419C4.23171 15.2174 4.11652 16.3321 4.96549 16.6011C5.79782 16.8721 6.28056 16.2029 7.36592 14.8445C11.413 15.1209 14.9854 13.9829 15.4634 9.90317C15.8916 6.27623 15.3383 3.56285 13.914 2.27175C11.8252 0.270173 5.02608 -0.0101538 2.5371 2.36896C1.51234 3.43501 1.01294 4.99911 0.966334 7.29167C0.92838 9.16407 0.851141 12.9928 4.25235 14.2419ZM1.96512 7.31231C2.00641 5.2861 2.41658 3.93507 3.24158 3.07611C5.31973 1.09051 11.4783 1.32023 13.2328 3.00353C14.4041 4.06424 14.8562 6.53658 14.472 9.78665C14.1231 12.767 12.2041 13.2758 11.4816 13.4669C9.98541 13.8617 8.55914 13.9476 7.1908 13.8291C6.83056 13.7905 6.68874 14.1314 6.55756 14.2552C5.90569 15.039 5.43559 15.6049 5.31374 15.6808C5.22384 15.547 5.23783 14.9138 5.24848 14.4051C5.21585 14.176 5.42094 13.5428 4.88625 13.3996C1.85992 12.506 1.9285 9.12811 1.96512 7.31231Z" fill="#656565"/>
<path d="M3.87509 5.98663C4.40845 7.05001 4.92848 8.92907 6.9254 10.5644C7.61856 11.1357 9.69338 12.4541 10.5057 12.4541C11.6663 12.4541 12.992 10.6283 12.0212 9.814C11.5844 9.38718 10.9698 8.96702 10.5756 8.73597C10.575 8.7353 10.5743 8.7353 10.5743 8.7353C9.55088 8.14335 8.99023 9.2327 8.92364 9.27531C7.42413 10.6177 5.57703 8.28585 6.87146 7.15788C7.0306 6.96012 7.98012 6.50201 7.4168 5.4606C6.91741 4.55703 6.58781 4.24607 6.40136 3.98838C5.41789 2.76054 3.2898 4.80007 3.87509 5.98663ZM9.98369 9.5643C10.0516 9.60691 10.6436 9.86593 11.35 10.5538C11.4399 10.629 10.8407 11.5 10.4591 11.45C10.3839 11.4161 9.83987 11.2862 8.67128 10.5717C9.7806 10.1949 9.77128 9.60425 9.98369 9.5643ZM5.54507 4.62029C5.58635 4.59831 5.60766 4.59698 5.60566 4.59165C5.79743 4.85866 6.08375 5.11302 6.54053 5.93935C6.66172 6.16375 6.36274 6.25098 6.16965 6.44807C5.89464 6.69178 5.69289 6.98209 5.56904 7.30237C5.1602 6.53064 4.97709 5.97464 4.79065 5.58578C4.71607 5.23154 5.22812 4.8014 5.54507 4.62029Z" fill="#656565"/>
<path d="M8.56954 6.36619C8.57687 6.36685 9.30132 6.45941 9.43116 7.23913C9.54103 7.901 10.5238 7.72321 10.416 7.07533C10.2142 5.86413 9.19478 5.43265 8.68274 5.37405C8.02687 5.30014 7.91434 6.29028 8.56954 6.36619Z" fill="#656565"/>
<path d="M8.04965 4.21285C8.06097 4.21285 9.63306 4.18488 10.6565 5.27955C11.6673 6.36091 11.4442 7.93301 11.4422 7.94699C11.3403 8.59487 12.3245 8.76666 12.4283 8.10214C12.4417 8.0189 12.7353 6.04063 11.3863 4.59705C10.0472 3.16412 8.09959 3.20873 8.01902 3.21406C7.33651 3.2367 7.41908 4.26478 8.04965 4.21285Z" fill="#656565"/>
</g>
<defs>
<clipPath id="clip0">
<rect width="15.9806" height="15.9806" fill="white" transform="translate(0.0385742 0.673096)"/>
</clipPath>
</defs>
</svg>

<svg width="17" height="17" viewBox="0 0 17 17" fill="none" xmlns="http://www.w3.org/2000/svg"><g clip-path="url(#clip0)" fill="#656565"><path d="M4.252 14.242c-.02.975-.135 2.09.713 2.36.833.27 1.316-.4 2.4-1.758 4.048.277 7.62-.861 8.098-4.94.429-3.628-.125-6.341-1.549-7.632C11.825.27 5.026-.01 2.537 2.369 1.512 3.435 1.013 4.999.967 7.292c-.039 1.872-.116 5.7 3.285 6.95zm-2.287-6.93c.041-2.026.452-3.377 1.277-4.236 2.078-1.985 8.236-1.756 9.99-.072 1.172 1.06 1.624 3.533 1.24 6.783-.349 2.98-2.268 3.489-2.99 3.68-1.497.395-2.923.48-4.291.362-.36-.039-.502.302-.633.426-.652.784-1.122 1.35-1.244 1.426-.09-.134-.076-.767-.066-1.276-.032-.229.173-.862-.362-1.005-3.026-.894-2.958-4.272-2.92-6.088z"/><path d="M3.875 5.987c.533 1.063 1.053 2.942 3.05 4.577.694.572 2.768 1.89 3.58 1.89 1.161 0 2.487-1.826 1.516-2.64-.437-.427-1.051-.847-1.445-1.078h-.002c-1.023-.593-1.584.497-1.65.54-1.5 1.342-3.347-.99-2.053-2.118.16-.198 1.11-.656.546-1.697-.5-.904-.83-1.215-1.016-1.473-.983-1.227-3.111.812-2.526 1.999zm6.109 3.577c.068.043.66.302 1.366.99.09.075-.51.946-.89.896-.076-.034-.62-.164-1.789-.878 1.11-.377 1.1-.968 1.313-1.008zM5.545 4.62c.041-.022.063-.023.06-.028.192.267.479.521.936 1.347.12.225-.178.312-.371.51a2.199 2.199 0 00-.601.853c-.409-.771-.592-1.327-.778-1.716-.075-.354.437-.785.754-.966z"/><path d="M8.57 6.366c.007 0 .731.093.861.873.11.662 1.093.484.985-.164-.202-1.21-1.221-1.642-1.733-1.7-.656-.075-.769.915-.113.991z"/><path d="M8.05 4.213c.011 0 1.583-.028 2.606 1.067 1.011 1.08.788 2.653.786 2.667-.102.648.883.82.986.155.014-.083.307-2.061-1.042-3.505C10.047 3.164 8.1 3.21 8.02 3.214c-.682.023-.6 1.05.03.999z"/></g><defs><clipPath id="clip0"><path fill="#fff" transform="translate(.039 .673)" d="M0 0h15.981v15.981H0z"/></clipPath></defs></svg>
